logos/Snap.svg

<?xml version="1.0" encoding="UTF-8" standalone="no"?>
<!DOCTYPE svg PUBLIC "-//W3C//DTD SVG 1.1//EN" "http://www.w3.org/Graphics/SVG/1.1/DTD/svg11.dtd">
<svg width="100%" height="100%" viewBox="0 0 392 386" version="1.1" xmlns="http://www.w3.org/2000/svg" xmlns:xlink="http://www.w3.org/1999/xlink" xml:space="preserve" xmlns:serif="http://www.serif.com/" style="fill-rule:evenodd;clip-rule:evenodd;stroke-linejoin:round;stroke-miterlimit:2;">
    <g transform="matrix(1,0,0,1,-54.3047,-55.32)">
        <path d="M444.3,337.26C441.58,329.86 436.4,325.9 430.5,322.62C429.39,321.97 428.37,321.45 427.5,321.05C425.74,320.14 423.94,319.26 422.15,318.33C403.76,308.58 389.4,296.28 379.44,281.7C376.612,277.595 374.158,273.245 372.11,268.7C371.26,266.27 371.3,264.89 371.91,263.63C372.515,262.659 373.315,261.825 374.26,261.18C377.42,259.09 380.68,256.97 382.89,255.54C386.83,252.99 389.95,250.97 391.96,249.54C399.51,244.26 404.79,238.65 408.09,232.38C412.746,223.619 413.364,213.251 409.78,204C404.78,190.84 392.35,182.67 377.29,182.67C374.113,182.667 370.946,183.002 367.84,183.67C367.01,183.85 366.18,184.04 365.37,184.25C365.51,175.25 365.31,165.75 364.51,156.4C361.67,123.53 350.16,106.3 338.16,92.56C330.476,83.95 321.424,76.666 311.37,71C293.16,60.6 272.51,55.32 250,55.32C227.49,55.32 206.94,60.6 188.71,71C178.631,76.667 169.561,83.966 161.87,92.6C149.87,106.34 138.36,123.6 135.52,156.44C134.72,165.79 134.52,175.34 134.65,184.29C133.84,184.08 133.02,183.89 132.19,183.71C129.084,183.042 125.917,182.707 122.74,182.71C107.67,182.71 95.22,190.88 90.24,204.04C86.64,213.295 87.243,223.674 91.89,232.45C95.2,238.72 100.48,244.33 108.03,249.61C110.03,251.01 113.16,253.03 117.1,255.61C119.23,256.99 122.34,259.01 125.39,261.03C126.457,261.72 127.364,262.63 128.05,263.7C128.69,265.01 128.71,266.42 127.76,269.02C125.739,273.469 123.327,277.729 120.55,281.75C110.81,296 96.87,308.08 79.07,317.75C69.64,322.75 59.84,326.09 55.7,337.34C52.58,345.83 54.62,355.49 62.55,363.63C65.46,366.668 68.836,369.223 72.55,371.2C80.278,375.447 88.495,378.735 97.02,380.99C98.779,381.444 100.449,382.191 101.96,383.2C104.85,385.73 104.44,389.54 108.29,395.12C110.223,398.004 112.678,400.5 115.53,402.48C123.61,408.06 132.69,408.41 142.31,408.78C151,409.11 160.85,409.49 172.1,413.2C176.76,414.74 181.6,417.72 187.21,421.2C200.68,429.48 219.12,440.81 249.98,440.81C280.84,440.81 299.41,429.42 312.98,421.11C318.55,417.69 323.36,414.74 327.89,413.24C339.14,409.52 348.99,409.15 357.68,408.82C367.3,408.45 376.38,408.1 384.46,402.52C387.837,400.165 390.651,397.091 392.7,393.52C395.47,388.81 395.4,385.52 398,383.22C399.417,382.259 400.986,381.542 402.64,381.1C411.281,378.838 419.61,375.519 427.44,371.22C431.386,369.103 434.938,366.322 437.94,363L438.04,362.88C445.48,354.92 447.35,345.54 444.3,337.26ZM416.87,352C400.14,361.24 389.02,360.25 380.37,365.82C373.02,370.55 377.37,380.75 372.03,384.43C365.47,388.96 346.08,384.11 321.03,392.38C300.37,399.21 287.19,418.85 250.03,418.85C212.87,418.85 200,399.25 179,392.33C154,384.06 134.57,388.91 128,384.38C122.67,380.7 127,370.5 119.66,365.77C111,360.2 99.88,361.19 83.16,352C72.51,346.12 78.55,342.48 82.1,340.76C142.7,311.42 152.37,266.12 152.8,262.76C153.32,258.69 153.9,255.49 149.42,251.35C145.09,247.35 125.88,235.46 120.55,231.74C111.73,225.58 107.85,219.43 110.71,211.87C112.71,206.64 117.59,204.67 122.71,204.67C124.328,204.675 125.941,204.856 127.52,205.21C137.2,207.31 146.6,212.16 152.03,213.47C152.684,213.638 153.355,213.728 154.03,213.74C156.93,213.74 157.95,212.28 157.75,208.96C157.13,198.37 155.63,177.73 157.3,158.44C159.59,131.9 168.14,118.75 178.3,107.12C183.18,101.53 206.11,77.3 249.96,77.3C293.81,77.3 316.8,101.43 321.68,107C331.85,118.63 340.41,131.78 342.68,158.32C344.35,177.61 342.91,198.26 342.23,208.84C342,212.33 343.05,213.62 345.95,213.62C346.625,213.609 347.296,213.519 347.95,213.35C353.39,212.04 362.79,207.19 372.47,205.09C374.049,204.736 375.662,204.555 377.28,204.55C382.43,204.55 387.28,206.55 389.28,211.75C392.14,219.31 388.28,225.46 379.45,231.62C374.12,235.34 354.91,247.22 350.58,251.23C346.09,255.37 346.68,258.57 347.2,262.64C347.63,266.05 357.29,311.35 417.9,340.64C421.48,342.43 427.52,346.07 416.87,352Z" style="fill:white;fill-rule:nonzero;"/>
    </g>
</svg>

<svg xmlns="http://www.w3.org/2000/svg" viewBox="0 0 500 500"><defs><style>.cls-1{fill:#fff;}</style></defs><title>1Artboard 1 copy 2</title><g id="PRIMARY_-_GHOST" data-name="PRIMARY - GHOST"><path class="cls-1" d="M417.93,340.71c-60.61-29.34-70.27-74.64-70.7-78-.52-4.07-1.11-7.27,3.38-11.41,4.33-4,23.54-15.89,28.87-19.61,8.81-6.16,12.69-12.31,9.83-19.87-2-5.23-6.87-7.2-12-7.2a22.3,22.3,0,0,0-4.81.54c-9.68,2.1-19.08,6.95-24.52,8.26a8.56,8.56,0,0,1-2,.27c-2.9,0-4-1.29-3.72-4.78.68-10.58,2.12-31.23.45-50.52-2.29-26.54-10.85-39.69-21-51.32C316.8,101.43,294,77.2,250,77.2S183.23,101.43,178.35,107c-10.18,11.63-18.73,24.78-21,51.32-1.67,19.29-.17,39.93.45,50.52.2,3.32-.82,4.78-3.72,4.78a8.64,8.64,0,0,1-2-.27c-5.43-1.31-14.83-6.16-24.51-8.26a22.3,22.3,0,0,0-4.81-.54c-5.15,0-10,2-12,7.2-2.86,7.56,1,13.71,9.84,19.87,5.33,3.72,24.54,15.6,28.87,19.61,4.48,4.14,3.9,7.34,3.38,11.41-.43,3.41-10.1,48.71-70.7,78-3.55,1.72-9.59,5.36,1.06,11.24,16.72,9.24,27.85,8.25,36.5,13.82,7.34,4.73,3,14.93,8.34,18.61,6.56,4.53,25.95-.32,51,7.95,21,6.92,33.76,26.47,71,26.47s50.37-19.64,71-26.47c25-8.27,44.43-3.42,51-7.95,5.33-3.68,1-13.88,8.34-18.61,8.65-5.57,19.77-4.58,36.5-13.82C427.52,346.07,421.48,342.43,417.93,340.71Z"/><path d="M444.3,337.26c-2.72-7.4-7.9-11.36-13.8-14.64-1.11-.65-2.13-1.17-3-1.57-1.76-.91-3.56-1.79-5.35-2.72-18.39-9.75-32.75-22.05-42.71-36.63a83.06,83.06,0,0,1-7.33-13c-.85-2.43-.81-3.81-.2-5.07a8.25,8.25,0,0,1,2.35-2.45c3.16-2.09,6.42-4.21,8.63-5.64,3.94-2.55,7.06-4.57,9.07-6,7.55-5.28,12.83-10.89,16.13-17.16A34.17,34.17,0,0,0,409.78,204c-5-13.16-17.43-21.33-32.49-21.33a44.75,44.75,0,0,0-9.45,1c-.83.18-1.66.37-2.47.58.14-9-.06-18.5-.86-27.85-2.84-32.87-14.35-50.1-26.35-63.84A105,105,0,0,0,311.37,71C293.16,60.6,272.51,55.32,250,55.32S206.94,60.6,188.71,71a104.62,104.62,0,0,0-26.84,21.6c-12,13.74-23.51,31-26.35,63.84-.8,9.35-1,18.9-.87,27.85-.81-.21-1.63-.4-2.46-.58a44.75,44.75,0,0,0-9.45-1c-15.07,0-27.52,8.17-32.5,21.33a34.21,34.21,0,0,0,1.65,28.41c3.31,6.27,8.59,11.88,16.14,17.16,2,1.4,5.13,3.42,9.07,6,2.13,1.38,5.24,3.4,8.29,5.42a8.9,8.9,0,0,1,2.66,2.67c.64,1.31.66,2.72-.29,5.32a82.29,82.29,0,0,1-7.21,12.73c-9.74,14.25-23.68,26.33-41.48,36-9.43,5-19.23,8.34-23.37,19.59-3.12,8.49-1.08,18.15,6.85,26.29h0a39.63,39.63,0,0,0,10,7.57,108.35,108.35,0,0,0,24.47,9.79,16.16,16.16,0,0,1,4.94,2.21c2.89,2.53,2.48,6.34,6.33,11.92a27.8,27.8,0,0,0,7.24,7.36c8.08,5.58,17.16,5.93,26.78,6.3,8.69.33,18.54.71,29.79,4.42,4.66,1.54,9.5,4.52,15.11,8,13.47,8.28,31.91,19.61,62.77,19.61s49.43-11.39,63-19.7c5.57-3.42,10.38-6.37,14.91-7.87,11.25-3.72,21.1-4.09,29.79-4.42,9.62-.37,18.7-.72,26.78-6.3a27.89,27.89,0,0,0,8.24-9c2.77-4.71,2.7-8,5.3-10.3a15.32,15.32,0,0,1,4.64-2.12,108.76,108.76,0,0,0,24.8-9.88A39,39,0,0,0,437.94,363l.1-.12C445.48,354.92,447.35,345.54,444.3,337.26ZM416.87,352c-16.73,9.24-27.85,8.25-36.5,13.82-7.35,4.73-3,14.93-8.34,18.61-6.56,4.53-25.95-.32-51,7.95-20.66,6.83-33.84,26.47-71,26.47S200,399.25,179,392.33c-25-8.27-44.43-3.42-51-7.95-5.33-3.68-1-13.88-8.34-18.61C111,360.2,99.88,361.19,83.16,352c-10.65-5.88-4.61-9.52-1.06-11.24,60.6-29.34,70.27-74.64,70.7-78,.52-4.07,1.1-7.27-3.38-11.41-4.33-4-23.54-15.89-28.87-19.61-8.82-6.16-12.7-12.31-9.84-19.87,2-5.23,6.88-7.2,12-7.2a22.3,22.3,0,0,1,4.81.54c9.68,2.1,19.08,6.95,24.51,8.26a8.64,8.64,0,0,0,2,.27c2.9,0,3.92-1.46,3.72-4.78-.62-10.59-2.12-31.23-.45-50.52,2.29-26.54,10.84-39.69,21-51.32,4.88-5.59,27.81-29.82,71.66-29.82S316.8,101.43,321.68,107c10.17,11.63,18.73,24.78,21,51.32,1.67,19.29.23,39.94-.45,50.52-.23,3.49.82,4.78,3.72,4.78a8.56,8.56,0,0,0,2-.27c5.44-1.31,14.84-6.16,24.52-8.26a22.3,22.3,0,0,1,4.81-.54c5.15,0,10,2,12,7.2,2.86,7.56-1,13.71-9.83,19.87-5.33,3.72-24.54,15.6-28.87,19.61-4.49,4.14-3.9,7.34-3.38,11.41.43,3.41,10.09,48.71,70.7,78C421.48,342.43,427.52,346.07,416.87,352Z"/></g></svg>
